X: 790
T: Pike County Breakdown
C:Trad Arr. Bill Monroe
B: jims roots
M:2/4
L:1/16
Q: 1/4=100
K:A
V:1 
|: EE | "A"A,2C2 E2F2 | A2[Ae][Ae] [A2e][Ae][Ae] | "E" eaga ecBc |"A"A2AA A2A2 |
"A"gaaa aaaa | =c'^c'c'c' c'c'c'c' | c'e'c'b aaa[ae] |  [a2e][ae][ae] aaaa ||
"A"=c'^c'c'c' c'c'c'c' | c'e'c'b a2aa | efaf afaf | [e2a][ea][ea] [e2a][ea] A,A, |
"A" A,2 C2 E2 F2 | A2ce efec | "E"cBAc BGGB | "A"A2AA A2 ||
% abcbook-tune_id 6298c279df533a8a13d6b9ca


% abcbook-boost 0
% abcbook-tablature 
% abcbook-transpose 
% abcbook-lastupdated 1654178426501
% abcbook-soundfonts 
% abcbook-repeats 1


